!!!COM: Fanny Hensel-Mendelssohn
!!!OTL: Schweigt der Menschen laute Lust
**kern	**text	**dynam	**kern	**text	**dynam	**kern	**text	**dynam	**kern	**text	**dynam
*part4	*part4	*part4	*part3	*part3	*part3	*part2	*part2	*part2	*part1	*part1	*part1
*staff4	*staff4	*	*staff3	*staff3	*	*staff2	*staff2	*	*staff1	*staff1	*
*I"Baß	*	*	*I"Tenor	*	*	*I"Alt	*	*	*I"Sopran	*	*
*clefF4	*	*	*clefGv2	*	*	*clefG2	*	*	*clefG2	*	*
*k[b-e-a-]	*	*	*k[b-e-a-]	*	*	*k[b-e-a-]	*	*	*k[b-e-a-]	*	*
*E-:	*	*	*E-:	*	*	*E-:	*	*	*E-:	*	*
*M4/4	*	*	*M4/4	*	*	*M4/4	*	*	*M4/4	*	*
*met(c)	*	*	*met(c)	*	*	*met(c)	*	*	*met(c)	*	*
=	=	=	=	=	=	=	=	=	=	=	=
!	!	!	!	!	!	!	!	!	!LO:TX:a:B:t=Adagio	!	!
4.E-	Schweigt	p	4.B-	Schweigt	p	4.g	Schweigt	p	4.ee-	Schweigt	p
8E-	der	.	8d-X	der	.	8e-	der	.	8g	der	.
=1	=1	=1	=1	=1	=1	=1	=1	=1	=1	=1	=1
4E-	Men-	.	4c	Men-	.	4e-	Men-	.	4a-	Men-	.
4G	-schen	.	4d-X	-schen	.	4e-	-schen	.	4b-	-schen	.
4.A-	lau-	.	4.c	lau-	.	4.e-	lau-	.	4.cc	lau-	.
8G-X	-te	.	8c	-te	.	8e-	-te	.	8b-	-te	.
=2	=2	=2	=2	=2	=2	=2	=2	=2	=2	=2	=2
2F	Lust:	.	2c	Lust:	.	2e-	Lust:	.	2an	Lust:	.
4.Bn	Rauscht	.	4.d	Rauscht	.	4.f	Rauscht	.	4.a-X	Rauscht	.
8B	die	.	8d	die	.	8f	die	.	8a-	die	.
=3	=3	=3	=3	=3	=3	=3	=3	=3	=3	=3	=3
4Bn	Er-	.	4d	Er-	.	4f	Er-	.	4a-	Er-	.
4c	-de	.	4e-	-de	.	4e-	-de	.	4g	-de	.
4.G	wie	.	4.B-	wie	.	4.en	wie	.	4.dd-X	wie	.
8G	in	.	8B-	in	.	8e	in	.	8dd-	in	.
!!linebreak:original
=4	=4	=4	=4	=4	=4	=4	=4	=4	=4	=4	=4
4G	Träu-	.	4B-	Träu-	.	4en	Träu-	.	4dd-Xi	Träu-	.
4A-	-men	.	4c	-men	.	4f	-men	.	4cc	-men	.
4F^	wun-	.	4c-X^	wun-	.	4e-X^	wun-	.	4a-^	wun-	.
4F	-der-	.	4B-	-der-	.	4d	-der-	.	4a-	-der-	.
=5	=5	=5	=5	=5	=5	=5	=5	=5	=5	=5	=5
4F^	-bar	.	4c-X^	-bar	.	4e-^	-bar	.	4a-^	-bar	.
4F	mit	.	4B-	mit	.	4d	mit	.	4a-	mit	.
4D	al-	.	4Bn	al-	.	4a-	al-	.	4ff	al-	.
4E-	-len	.	4cn	-len	.	4a-	-len	.	8ee-L	-len	.
.	.	.	.	.	.	.	.	.	8ffJ	.	.
=6	=6	=6	=6	=6	=6	=6	=6	=6	=6	=6	=6
4F	Bäu-	.	4f	Bäu-	.	4a-	Bäu-	.	4ee-	Bäu-	.
4BB-	-men,	.	4f	-men,	.	4a-	-men,	.	4dd	-men,	.
2r	.	.	2r	.	.	4.b-	was	.	2r	.	.
.	.	.	.	.	.	8cc	dem	.	.	.	.
=7	=7	=7	=7	=7	=7	=7	=7	=7	=7	=7	=7
2r	.	.	2r	.	.	4dd-X^	Her-	.	1r	.	.
.	.	.	.	.	.	4b-	-zen	.	.	.	.
4.B-	was	.	4.d-X	was	.	4g	kaum	.	.	.	.
.	.	.	.	.	.	4f	be-	.	.	.	.
8A-	dem	.	8c	dem	.	.	.	.	.	.	.
!!linebreak:original
=8	=8	=8	=8	=8	=8	=8	=8	=8	=8	=8	=8
4B-	Her-	.	4d-X	Her-	.	2en	-wußt,	.	2r	.	.
4A-	-zen	.	4c	-zen	.	.	.	.	.	.	.
4A-	kaum	.	4c	kaum	.	2r	.	.	4.cc	was	.
4G	be-	.	4B-	be-	.	.	.	.	.	.	.
.	.	.	.	.	.	.	.	.	8cc	dem	.
=9	=9	=9	=9	=9	=9	=9	=9	=9	=9	=9	=9
4F	-wußt,	.	4An	-wußt,	.	2.f	kaum	.	4ff	Her-	.
4r	.	.	4r	.	.	.	.	.	4cc	-zen	.
4F	kaum	.	4c	kaum	.	.	.	.	4an	kaum	.
4F	be-	.	4d-X	be-	.	4en	be-	.	8ccL	be-	.
.	.	.	.	.	.	.	.	.	8b-J	.	.
=10	=10	=10	=10	=10	=10	=10	=10	=10	=10	=10	=10
2F	-wußt,	.	2c	-wußt,	.	2f	-wußt,	.	4an	-wußt,	.
.	.	.	.	.	.	.	.	.	4r	.	.
4.E-	al-	.	4.c	al-	.	4.f	al-	.	4.a-X	al-	.
8E-	-te	.	8c	-te	.	8f	-te	.	8a-	-te	.
=11	=11	=11	=11	=11	=11	=11	=11	=11	=11	=11	=11
1D	Zei-	.	4A-	Zei-	.	1f	Zei-	.	4cc-X	Zei-	.
.	.	.	4B-	-ten,	.	.	.	.	4b-	-ten,	.
.	.	.	4.B-	lin-	.	.	.	.	4.b-	lin-	.
.	.	.	8c-X	-de	.	.	.	.	8a-	-de	.
!!pagebreak:original
=12	=12	=12	=12	=12	=12	=12	=12	=12	=12	=12	=12
4E-	-ten,	.	4c-X	Trau-	.	(4e-	-ten,	.	4a-	Trau-	.
4r	.	.	4B-	-er,	.	4g)	.	.	4g	-er,	.
2r	.	.	4.e-	al-	.	2r	.	.	2r	.	.
.	.	.	8e-	-te	.	.	.	.	.	.	.
=13	=13	=13	=13	=13	=13	=13	=13	=13	=13	=13	=13
1r	.	.	4g-X	Zei-	.	2r	.	.	2r	.	.
.	.	.	4e-	-ten,	.	.	.	.	.	.	.
.	.	.	4.c-X	lin-	.	4.g-X	lin-	.	4.ee-	lin-	.
.	.	.	8A-	-de	.	8e-	-de	.	8g-X	-de	.
=14	=14	=14	=14	=14	=14	=14	=14	=14	=14	=14	=14
2r	.	.	4An	Trau-	.	4e-	Trau-	.	4g-X	Trau-	.
.	.	.	4B-	-er,	.	4d	-er,	.	4f	-er,	.
4.A-X	und	.	4.d	und	.	4.f	und	.	4.b-	und	.
8A-	es	.	8d	es	.	8f	es	.	8b-	es	.
=15	=15	=15	=15	=15	=15	=15	=15	=15	=15	=15	=15
4G	schwei-	.	4B-	schwei-	.	4e-	schwei-	.	8ee-L	schwei-	.
.	.	.	.	.	.	.	.	.	8ddJ	.	.
4G	-fen	.	4B-	-fen	.	4e-	-fen	.	8ccL	-fen	.
.	.	.	.	.	.	.	.	.	8b-J	.	.
2r	.	.	2r	.	.	2r	.	.	8ggL	lei-	.
.	.	.	.	.	.	.	.	.	8ffJ	.	.
.	.	.	.	.	.	.	.	.	8ee-L	-se	.
.	.	.	.	.	.	.	.	.	8ddJ	.	.
!!linebreak:original
=16	=16	=16	=16	=16	=16	=16	=16	=16	=16	=16	=16
2r	.	.	2r	.	.	2r	.	.	4dd	Schau-	.
.	.	.	.	.	.	.	.	.	4cc	-er	.
4c	wet-	.	4e-	wet-	.	4g-X	wet-	.	4b-	wet-	.
4c	-ter-	.	4e-	-ter-	.	4f	-ter-	.	4an	-ter-	.
=17	=17	=17	=17	=17	=17	=17	=17	=17	=17	=17	=17
4.B-	-leuch-	.	4.d	-leuch-	.	4.a-	-leuch-	.	4.ff	-leuch-	.
8BB-	-tend	.	8B-	-tend	.	8d	-tend	.	8a-X	-tend	.
4C	durch	.	4B-	durch	.	4e-	durch	.	4a-	durch	.
4D	die	.	4B-	die	.	4f	die	.	4a-	die	.
=18	=18	=18	=18	=18	=18	=18	=18	=18	=18	=18	=18
2E-	Brust,	.	2B-	Brust,	.	(4d	Brust,	.	(4f#X	Brust,	.
.	.	.	.	.	.	4e-)	.	.	4g)	.	.
4.c	und	p	4.e-	und	p	4.a-	und	p	2r	.	.
8c	es	.	8e-	es	.	8a-	es	.	.	.	.
=19	=19	=19	=19	=19	=19	=19	=19	=19	=19	=19	=19
4B-	schwei-	.	4e-	schwei-	.	4g	schwei-	.	2r	.	.
4An	-fen	.	4e-	-fen	.	4f#X	-fen	.	.	.	.
4B-	lei-	.	4e-	lei-	.	4g	lei-	.	4.ee-	und	.
4c	-se	.	4e-	-se	.	4a-	-se	.	.	.	.
.	.	.	.	.	.	.	.	.	8ee-	es	.
!!linebreak:original
=20	=20	=20	=20	=20	=20	=20	=20	=20	=20	=20	=20
4B-	Schau-	.	4e-	Schau-	.	4g	Schau-	.	2ee-	schwei-	.
4An	-er	.	4e-	-er	.	4f#X	-er	.	.	.	.
4.B-	und	.	4.e-	und	.	4.g	und	.	4e-	-fen	.
.	.	.	.	.	.	.	.	.	4r	.	.
8d-X	es	.	8e-	es	.	8b-	es	.	.	.	.
=21	=21	=21	=21	=21	=21	=21	=21	=21	=21	=21	=21
4c	schwei-	.	4e-	schwei-	.	4a-	schwei-	.	2r	.	.
4Bn	-fen	.	4e-	-fen	.	4g	-fen	.	.	.	.
4c	lei-	.	4e-	lei-	.	4a-	lei-	.	4.ee-	lei-	.
4d-X	.	.	4e-	.	.	4b-	.	.	.	.	.
.	.	.	.	.	.	.	.	.	8ee-	-se	.
=22	=22	=22	=22	=22	=22	=22	=22	=22	=22	=22	=22
4c	-Schau-	.	4e-	-Schau-	.	4a-	-Schau-	.	4ee-	Schau-	.
4Bn	-er	.	4e-	-er	.	4g	-er	.	4e-	-er	.
4c	wet-	.	4e-	wet-	.	4a-	wet-	.	4ee-	wet-	.
4B-X	-ter-	.	4d-X	-ter-	.	4g	-ter-	.	4ee-	-ter-	.
=23	=23	=23	=23	=23	=23	=23	=23	=23	=23	=23	=23
2.A-	-leucht-	.	2.c	-leucht-	.	2.e-	-leucht-	.	4gg-X^	-leucht-	.
.	.	.	.	.	.	.	.	.	8ee-L	-tend	.
.	.	.	.	.	.	.	.	.	8ccJ	.	.
.	.	.	.	.	.	.	.	.	4a-	durch	.
4AA-	-tend,	.	4c	-tend,	.	4e-	-tend,	.	4g-X	die	.
!!pagebreak:original
=24	=24	=24	=24	=24	=24	=24	=24	=24	=24	=24	=24
[2AAn	wet-	.	4e-	wet-	.	[2c	wet-	.	2f	Brust,	.
.	.	.	8cL	-ter-	.	.	.	.	.	.	.
.	.	.	8AnJ	.	.	.	.	.	.	.	.
4AA]	.	.	4F	-leuch-	.	4c]	.	.	4f	wet-	.
4AA	-ter-	.	4E-	-tend,	.	4f	-ter-	.	4f	-ter-	.
=25	=25	=25	=25	=25	=25	=25	=25	=25	=25	=25	=25
!LO:TX:b:i:t=dim.	!	!	!LO:TX:b:i:t=dim.	!	!	!LO:TX:b:i:t=dim.	!	!	!LO:TX:b:i:t=dim.	!	!
2BB-	-leuch-	.	2G-X	leuch-	.	2e-	-leuch-	.	2b-	-leuch-	.
2C-X	-tend	.	2A-	-tend	.	2e-	-tend	.	2e-	-tend	.
=26	=26	=26	=26	=26	=26	=26	=26	=26	=26	=26	=26
2AA-	durch	.	2c-X	durch	.	2e-	durch	.	2.f	durch	.
2BB-	die	.	4B-	die	.	2d	die	.	.	.	.
.	.	.	4A-	.	.	.	.	.	4g	die	.
=27	=27	=27	=27	=27	=27	=27	=27	=27	=27	=27	=27
4E-	Brust,	.	4G	Brust,	.	4B-	Brust,	.	4e-	Brust,	.
4r	.	.	4r	.	.	4r	.	.	4r	.	.
2r	.	.	4G	und	p	4B-	und	p	2r	.	.
.	.	.	4A-	es	.	4c	es	.	.	.	.
=28	=28	=28	=28	=28	=28	=28	=28	=28	=28	=28	=28
2r	.	.	4B-	schwei-	.	4d-X	schwei-	.	2r	.	.
.	.	.	4Bn	-fen	.	4dn	-fen	.	.	.	.
4.E-	lei-	p	4c	lei-	.	4e-	lei-	.	4.e-	lei-	p
.	.	.	4c-X	-se	.	4d	-se	.	.	.	.
8E-	-se	.	.	.	.	.	.	.	8a-	-se	.
!!linebreak:original
=29	=29	=29	=29	=29	=29	=29	=29	=29	=29	=29	=29
4E-	Schau-	.	4c-X	Schau-	.	4d	Schau-	.	4a-	Schau-	.
4E-	-er,	.	4B-	-er,	.	4e-	-er,	.	4g	-er,	.
2r	.	.	2r	.	.	4g	lei-	.	4b-	lei-	.
.	.	.	.	.	.	4a-	-se	.	4cc	-se	.
=30	=30	=30	=30	=30	=30	=30	=30	=30	=30	=30	=30
1r	.	.	2r	.	.	4b-	Schau-	.	4dd-X	Schau-	.
.	.	.	.	.	.	4a-	-er	.	4ddn	-er	.
.	.	.	4e-	wet-	.	4g	wet-	.	4ee-	wet-	.
.	.	.	4f	-ter-	.	4a-	-ter-	.	4dd	-ter-	.
=31	=31	=31	=31	=31	=31	=31	=31	=31	=31	=31	=31
2.E-	leuch-	.	2.d	-leuch-	.	2.f	-leuch-	.	2.ff	-leuch-	.
4E-	-tend	.	4A-	-tend	.	4d	-tend	.	4cc-X	-tend	.
=32	=32	=32	=32	=32	=32	=32	=32	=32	=32	=32	=32
2E-	durch	.	2B-	durch	.	2d	durch	.	2b-	durch	.
2E-	die	.	2c-X	die	.	2d	die	.	2a-	die	.
=33	=33	=33	=33	=33	=33	=33	=33	=33	=33	=33	=33
[1E-	Brust.	.	1c-X	Brust.	.	(1d	Brust.	.	(1a-	Brust.	.
=34	=34	=34	=34	=34	=34	=34	=34	=34	=34	=34	=34
2E-]	.	.	2B-	.	.	2e-)	.	.	2g)	.	.
==	==	==	==	==	==	==	==	==	==	==	==
*-	*-	*-	*-	*-	*-	*-	*-	*-	*-	*-	*-
!!!system-decoration: [(s1,s2,s3,s4)]
!!!RDF**kern: i = editorial accidental